X: 637
T: Ravenscroft's fancy
M:3/2
L:1/8
S: 8: MCJLSH3 http://www.cpartington.plus.com/links/Walsh.abc
Z: Pete Stewart 2004
B: Walsh "Third Book of the most Celebrated jiggs, Lancashire hornpipes, ..."
K:Cm
EGBe dcBAG4 | cBAG AFGA D4 | B,DFA GFED EcBA | GEDE B,EDFE4 ||
gfed cBAGA4 | fedc BAGFE4 | edcB AGFE DcBA | GEDE B,EDFE4 ||
EDCB, CA,G,A, CA,G,A, | FEDC DB,=A,B, DB,=A,B, | GFED EGFE DcBA | GEDE B,EDFE4 ||
Bdfb fdBd fagf | edcB AGFE D4 | B,DFA GFED EcBA | GEDE B,EDFE4 ||
B3A GFED EGEC | c3B AGFE FAFD | d3c BAGF EcBA | GEDE B,EDFE4 ||
bgaf gefd f2d2 | BGAF GEFC D4 | EGFA GBAc Bedc | BAGF GEFDE4 ||

%%sep 1 1 500
%%sep 1 1 500
